app/assets/fonts/src/GGY.svg

<?xml version="1.0" encoding="utf-8"?>
<!-- Generated by IcoMoon.io -->
<!DOCTYPE svg PUBLIC "-//W3C//DTD SVG 1.1//EN" "http://www.w3.org/Graphics/SVG/1.1/DTD/svg11.dtd">
<svg version="1.1" xmlns="http://www.w3.org/2000/svg" xmlns:xlink="http://www.w3.org/1999/xlink" width="1024" height="1024" viewBox="0 0 1024 1024"><g id="icomoon-ignore">
</g>
<path d="M426.211 29.127l28.9 28.9v397.085h-397.085l-58.027-58.027v229.831l58.027-58.027h397.085v397.085l-58.027 58.027h229.831l-58.027-58.027v-397.085h397.085l58.027 58.027v-229.831l-58.027 58.027h-397.085v-397.085l58.027-58.027h-229.831l29.127 29.127z"></path>
</svg>

<svg xmlns="http://www.w3.org/2000/svg" width="1024" height="1024" viewBox="0 0 1024 1024"><path d="M426.21 29.127l28.9 28.9v397.085H58.027L0 397.085v229.83l58.026-58.026H455.11v397.083L397.085 1024h229.83l-58.026-58.026V568.89h397.084L1024 626.915v-229.83l-58.027 58.026H568.888V58.028L626.915 0h-229.83l29.126 29.127z"/></svg>
